!!!COM:	Ockeghem, Johannes
!!!CDT:	~1425-1497/02/06
!!!OPR:	Missa L'homme arm&eacute;
!!!ONM:	1
!!!OTL:	Kyrie
!!!AGN:	Mass; Kyrie
!!!SCT:	Ock1008a
!!!SCA:	Ock1008a
!!!voices:	4
!!!voices-OPR:	4
**kern	**kern	**kern	**kern
*staff4	*staff3	*staff2	*staff1
*vox	*vox	*vox	*vox
*I"Bassus	*I"Tenor	*I"Altus	*I"Superius
*I'B	*I'T	*I'A	*I'S
*clefF4	*clefGv2	*clefGv2	*clefG2
*k[]	*k[]	*k[]	*k[]
*>[A,B,C]	*>[A,B,C]	*>[A,B,C]	*>[A,B,C]
*>A	*>A	*>A	*>A
*M3/1	*M3/1	*M3/1	*M3/1
*met(O)	*met(C.)	*met(O)	*met(O)
*	*rscale:1/2	*	*
!!primary-mensuration: met(O)
=1-	=1-	=1-	=1-
!!section: Kyrie I
!!!OMD: Kyrie I
0.G	0G	0d	1.g
.	.	.	2a/
.	1G	1d	2.b\
.	.	.	4cc\
=2	=2-	=2	=2
2.F\	0c	1f	1.a
4E\	.	.	.
0C	.	2.e\	.
.	.	.	4g/
.	.	4f\	4f/
.	1c	2g\	1e
.	.	2a\	.
=3	=3	=3	=3
1G	1B	2d\	1d
.	.	1g	.
1.c	0A	.	1r
.	.	2f#i\	.
.	.	2f#i\	1cc
4B\	.	2e\	.
4A\	.	.	.
=4	=4-	=4	=4
0B	0.G	0g	1.dd
.	.	.	1ee
1G	.	2.g\	.
.	.	.	2dd\
.	.	4e\	.
=5	=5	=5	=5
!!linebreak:original
2A\	0.r	2f\	2cc\
1B	.	1g	4b\
.	.	.	4a/
.	.	.	2g/
2c\	.	2e\	2.cc\
1G	.	1d	.
.	.	.	4b\
.	.	.	2b\
=6	=6-	=6	=6
2r	0.r	2c\	2a/
1G	.	2B\	1dd
.	.	2G/	.
2E\	.	2r	2cc\
2.D\	.	1d	2b\
.	.	.	2a/
4F\	.	.	.
=7	=7	=7	=7
2E\	0.r	2c\	2cc\
2D\	.	2d\	1b
1F	.	1A	.
.	.	.	1a
1G	.	1B	.
.	.	.	2g/
=8	=8-	=8	=8
2F\	1d	1A	1.a
1D	.	.	.
.	1d	2d\	.
2D\	.	2.d\	2f/
2E\	1G	.	1e
.	.	4B\	.
2C/	.	2c\	.
=9	=9	=9	=9
!!linebreak:original
2D\	0.r	2A/	1d
1G	.	2.B\	.
.	.	.	1g
.	.	4G/	.
2B\	.	2.g\	.
2A\	.	.	1a
.	.	4e\	.
2d\	.	2f#i\	.
=10	=10-	=10	=10
2r	1r	1g	1b
1G	.	.	.
.	1d	1r	2g/
2F\	.	.	2a/
1G	1d	1g	2b\
.	.	.	[2dd\
=11	=11	=11	=11
1D	1d	1f	4dd\]
.	.	.	4cc\
.	.	.	0a
2r	0c	2e\	.
1F	.	2c\	.
.	.	1f	.
2A\	.	.	2f/
=12	=12-	=12	=12
2G\	1B	2e\	2.g/
2E\	.	2.g\	.
.	.	.	8f/L
.	.	.	8e/J
2F\	0A	.	2d/
.	.	4f\	.
2G\	.	2e\	1g
1D	.	1d	.
.	.	.	2f#i/
=13	=13	=13	=13
!	!LO:N:vis=00	!	!
0.Gl	0.Gl	0.dl	0.gl
*	*rscale:1	*	*
!!pagebreak:original
!!LO:LB:i:g=z
=14||	=14||	=14||	=14||
*>B	*>B	*>B	*>B
!!section: Christe
!!!OMD: Christe
*M3/1	*M3/1	*M3/1	*M3/1
*met(C.)	*met(C.)	*met(C.)	*met(C.)
1G	1g	1.d	1g
2G\	2g\	.	2b\
1.A	1f	1.c	2cc\
.	.	.	2.a/
.	2f\	.	.
.	.	.	4g/
=15	=15	=15	=15
2G\	1g	2d\	2b\
1c	.	1e	2g/
.	2g\	.	2cc\
1.B	1.d	1f	2dd\
.	.	.	1ff
.	.	2d\	.
=16	=16	=16	=16
2c\	1g	2c\	2ee\
2G\	.	2B\	1dd
1c	2g\	2c\	.
.	1f	2e\	1cc
1d	.	1d	.
.	2f\	.	2b\
=17	=17	=17	=17
1.c	1g	1e	1cc
.	2e\	2c\	2a/
1B-i	1.d	2d\	2f/
.	.	1G	1b-
2G\	.	.	.
=18	=18	=18	=18
!!linebreak:original
2F\	1.r	0c	2a/
2C/	.	.	1g
2F\	.	.	.
2A\	1r	.	1f
1G	.	1B	.
.	2g\	.	2e/
=19	=19	=19	=19
1F	1a	1c	1f
2c\	2g\	2e\	2r
2d\	2f\	4f\	2.a/
.	.	4g\	.
4c\	1e	1a	.
4B\	.	.	4b\
2A\	.	.	4cc\
.	.	.	8b\L
.	.	.	8cc\J
=20	=20	=20	=20
2B\	1.d	2.g\	2.dd\
1G	.	.	.
.	.	4f\	2b\
.	.	4e\	.
.	.	4d\	4g/
2B\	1.d	1d	4g/
.	.	.	8f#i/L
.	.	.	8g/J
1A	.	.	4a/
.	.	.	4e/
.	.	2c\	2f#i/
=21	=21	=21	=21
0.Gl	0.Gl	0.dl	0.gl
!!linebreak:original
!!LO:LB:i:g=z
=22||	=22||	=22||	=22||
*>C	*>C	*>C	*>C
!!section: Kyrie II
!!!OMD: Kyrie II
*M3/1	*M3/1	*M3/1	*M3/1
*met(O)	*met(C.)	*met(O)	*met(O)
!!primary-mensuration: met(O)
*	*rscale:1/2	*	*
0G	0G	0.g	0d
1B-i	1G	.	1d
=23	=23-	=23	=23
1A	0c	1e	1e
0F	.	1.f	1.a
.	1c	.	.
.	.	2d\	2g/
=24	=24	=24	=24
1G	1B	1d	1.g
0D	0A	1r	.
.	.	.	2f#i/
.	.	1d	2f#i/
.	.	.	2e/
=25	=25-	=25	=25
0d	0.G	0B	1g
.	.	.	1r
1G	.	1B	1e
=26	=26	=26	=26
!!linebreak:original
0D	1d	1A	2.f/
.	.	.	4g/
.	1d	1r	2a/
.	.	.	1b-i
1r	1G	1r	.
.	.	.	2g/
=27	=27-	=27	=27
1D	0.r	1.d	2b-i\
.	.	.	1a
2.F\	.	.	.
.	.	2B\	2f/
4G\	.	.	.
1A	.	1c	1e
=28	=28	=28	=28
0D	1r	2.d\	1d
.	.	4c\	.
.	1d	0A	1r
1D	1d	.	1f
=29	=29-	=29	=29
1G	1d	1r	1g
1C	0c	1e	1.a
1F	.	1f	.
.	.	.	2g/
=30	=30	=30	=30
2r	1B	1d	1g
2G\	.	.	.
2.A\	0A	2.c\	2f/
.	.	.	1e
4G\	.	4d\	.
2E\	.	1e	.
2F\	.	.	2c/
=31	=31-	=31	=31
!!pagebreak:original
2G\	1G	2r	2B/
2C/	.	2.c\	2.e/
2r	2A/	.	.
.	.	4d\	4d/
2G\	2.G/	2G/	2B/
1D	.	1A	2A/
.	4E/	.	.
.	2F/	.	[2d/
=32	=32	=32	=32
1G	4G/	1B	2d/]
.	2B\	.	.
.	.	.	2e/
.	4c\	.	.
2F\	1d	1A	4d/
.	.	.	2f/
2D\	.	.	.
.	.	.	4g/
1F	2c\	2r	4a/
.	.	.	4b\
.	2A/	2f\	4cc\
.	.	.	4dd\
=33	=33-	=33	=33
2G\	2G/	4d\	2b\
.	.	2e\	.
2A\	2D/	.	4a/
.	.	4f\	2dd\
2B\	2G/	2g\	.
.	.	.	2b\
2G\	2B\	2e\	.
.	.	.	4g/
1D	1A	1d	4a/
.	.	.	4e/
.	.	.	2f#i/
=34	=34	=34	=34
!	!LO:N:vis=00	!	!
0.Gl	0.Gl	0.dl	0.gl
*	*rscale:1	*	*
==	==	==	==
*-	*-	*-	*-
!!!RDF**kern: l=long note in original notation
!!!RDF**kern: i=editorial accidental
!!!RDF**kern: V=start of tuplet marker
!!!RDF**kern: Z=end of tuplet marker
!!!ENC:	Jesse Rodin; Victoria Chang 2012/03/27
!!!END:	2012/03/27/
!!!EED:	Jesse Rodin
!!!EEV:	2012/03/30/
!!!ONB:	Translated from MusicXML and edited on 2012/03/30/ by Craig Sapp
!!muse2ps: T^@{OPR}^u^@{ONM}{. }@{OTL}^C^@{COM}^i2I150v85,85,85,150c120
